X: 254
T: A Maid That's Deep In Love
R: waltz
M: 3/4
K: Dmixolydian
a2|a4g2|f4e2|d4c2|A2G2A2|c2B2c2|d4d2|d6-|d2z2A2|
d2d2e2|f4g2|a4c'2|a2g3f|d4d2|e4AB|c6-|c2z2a2|
a4g2|f4e2|d4c2|A2z2AB|c4d2-|d2d2d2|d6-|d2z2|

